TMultiGraph/c2.svg

<svg xmlns="http://www.w3.org/2000/svg" viewBox="0 0 1200 800" preserveAspectRatio="none" width="1200" height="800">
 <path d="M0,0H1200V800H0Z" style="fill: white;"></path>
 <g>
  <g transform="translate(120,80)">
   <path d="M0,0H960V640H0Z" style="fill: white; stroke: black; stroke-width: 1;"></path>
   <svg x="0" y="0" overflow="hidden" width="960" height="640" viewBox="0 0 960 640">
    <g>
     <g transform="translate(71,556)">
      <path style="stroke: black; stroke-width: 1; fill: none;" d="M0,0H-27m0,3v-6M0,0H27m0,3v-6M0,0V55m3,0h-6M0,0V-55m3,0h-6"></path>
     </g>
     <g transform="translate(616,211)">
      <path style="stroke: black; stroke-width: 1; fill: none;" d="M0,0H-27m0,3v-6M0,0H27m0,3v-6M0,0V36m3,0h-6M0,0V-36m3,0h-6"></path>
     </g>
     <path d="M67,552v8h8v-8zM612,207v8h8v-8z" style="stroke: red; fill: red;"></path>
    </g>
    <g>
     <g transform="translate(344,356)">
      <path style="stroke: black; stroke-width: 1; fill: none;" d="M0,0H-27m0,3v-6M0,0H27m0,3v-6M0,0V55m3,0h-6M0,0V-55m3,0h-6"></path>
     </g>
     <g transform="translate(889,65)">
      <path style="stroke: black; stroke-width: 1; fill: none;" d="M0,0H-27m0,3v-6M0,0H27m0,3v-6M0,0V36m3,0h-6M0,0V-36m3,0h-6"></path>
     </g>
     <path d="M344,352l-4,8h8zM889,61l-4,8h8z" style="stroke: green; fill: green;"></path>
    </g>
    <g>
     <path d="M0,579.44C1.19,578.74,7.22,575.2,9.6,573.81S16.82,569.57,19.2,568.17S26.42,563.93,28.8,562.53S36.02,558.3,38.4,556.9S45.62,552.66,48,551.26S55.22,547.02,57.6,545.63S64.82,541.39,67.2,539.99S74.42,535.75,76.8,534.35S84.02,530.11,86.4,528.72S93.62,524.48,96,523.08S103.22,518.84,105.6,517.44S112.82,513.2,115.2,511.81S122.42,507.57,124.8,506.17S132.02,501.93,134.4,500.53S141.62,496.3,144,494.9S151.22,490.66,153.6,489.26S160.82,485.02,163.2,483.63S170.42,479.39,172.8,477.99S180.02,473.75,182.4,472.35S189.62,468.11,192,466.72S199.22,462.48,201.6,461.08S208.82,456.84,211.2,455.44S218.42,451.21,220.8,449.81S228.02,445.57,230.4,444.17S237.62,439.93,240,438.54S247.22,434.3,249.6,432.9S256.82,428.66,259.2,427.26S266.42,423.02,268.8,421.63S276.02,417.39,278.4,415.99S285.62,411.75,288,410.35S295.22,406.11,297.6,404.72S304.82,400.48,307.2,399.08S314.42,394.84,316.8,393.44S324.02,389.21,326.4,387.81S333.62,383.57,336,382.17S343.22,377.93,345.6,376.54S352.82,372.3,355.2,370.9S362.42,366.66,364.8,365.26S372.02,361.02,374.4,359.63S381.62,355.39,384,353.99S391.22,349.75,393.6,348.35S400.82,344.11,403.2,342.72S410.42,338.48,412.8,337.08S420.02,332.84,422.4,331.44S429.62,327.21,432,325.81S439.22,321.57,441.6,320.17S448.82,315.93,451.2,314.54S458.42,310.3,460.8,308.9S468.02,304.66,470.4,303.26S477.62,299.02,480,297.63S487.22,293.39,489.6,291.99S496.82,287.75,499.2,286.35S506.42,282.12,508.8,280.72S516.02,276.48,518.4,275.08S525.62,270.84,528,269.45S535.22,265.21,537.6,263.81S544.82,259.57,547.2,258.17S554.42,253.93,556.8,252.54S564.02,248.3,566.4,246.9S573.62,242.66,576,241.26S583.22,237.02,585.6,235.63S592.82,231.39,595.2,229.99S602.42,225.75,604.8,224.35S612.02,220.12,614.4,218.72S621.62,214.48,624,213.08S631.22,208.84,633.6,207.45S640.82,203.21,643.2,201.81S650.42,197.57,652.8,196.17S660.02,191.93,662.4,190.54S669.62,186.3,672,184.9S679.22,180.66,681.6,179.26S688.82,175.02,691.2,173.63S698.42,169.39,700.8,167.99S708.02,163.75,710.4,162.36S717.62,158.12,720,156.72S727.22,152.48,729.6,151.08S736.82,146.84,739.2,145.45S746.42,141.21,748.8,139.81S756.02,135.57,758.4,134.17S765.62,129.93,768,128.54S775.22,124.3,777.6,122.9S784.82,118.66,787.2,117.26S794.42,113.03,796.8,111.63S804.02,107.39,806.4,105.99S813.62,101.75,816,100.36S823.22,96.12,825.6,94.72S832.82,90.48,835.2,89.08S842.42,84.84,844.8,83.45S852.02,79.21,854.4,77.81S861.62,73.57,864,72.17S871.22,67.93,873.6,66.54S880.82,62.3,883.2,60.9S890.42,56.66,892.8,55.26S900.02,51.03,902.4,49.63S909.62,45.39,912,43.99S919.22,39.75,921.6,38.36S928.82,34.12,931.2,32.72S938.42,28.48,940.8,27.08S948.02,22.84,950.4,21.45S958.81,16.51,960,15.81" style="fill: none; stroke: red; stroke-width: 2;"></path>
    </g>
   </svg>
   <g>
    <g transform="translate(0,640)">
     <path d="M0,0h960M16,-12v12m28,-12v12m27,-24v24m27,-12v12m27,-12v12m28,-12v12m27,-12v12m27,-24v24m28,-12v12m27,-12v12m27,-12v12m27,-12v12m28,-24v24m27,-12v12m27,-12v12m27,-12v12m28,-12v12m27,-24v24m27,-12v12m28,-12v12m27,-12v12m27,-12v12m27,-24v24m28,-12v12m27,-12v12m27,-12v12m27,-12v12m28,-24v24m27,-12v12m27,-12v12m28,-12v12m27,-12v12m27,-24v24m27,-12v12m28,-12v12" style="stroke: black; stroke-width: 1;"></path>
     <g font-family="Arial" font-size="28" space="preserve" fill="black" text-anchor="middle">
      <text dy=".8em" transform="translate(71,6)">
       2
      </text>
      <text dy=".8em" transform="translate(207,6)">
       2.5
      </text>
      <text dy=".8em" transform="translate(344,6)">
       3
      </text>
      <text dy=".8em" transform="translate(480,6)">
       3.5
      </text>
      <text dy=".8em" transform="translate(616,6)">
       4
      </text>
      <text dy=".8em" transform="translate(753,6)">
       4.5
      </text>
      <text dy=".8em" transform="translate(889,6)">
       5
      </text>
     </g>
    </g>
    <g>
     <path d="M0,0v640M18,629h-18m18,-18h-18m18,-18h-18m36,-18h-36m18,-19h-18m18,-18h-18m18,-18h-18m18,-18h-18m36,-18h-36m18,-19h-18m18,-18h-18m18,-18h-18m18,-18h-18m36,-18h-36m18,-18h-18m18,-19h-18m18,-18h-18m18,-18h-18m36,-18h-36m18,-18h-18m18,-19h-18m18,-18h-18m18,-18h-18m36,-18h-36m18,-18h-18m18,-18h-18m18,-19h-18m18,-18h-18m36,-18h-36m18,-18h-18m18,-18h-18m18,-19h-18m18,-18h-18m36,-18h-36m18,-18h-18" style="stroke: black; stroke-width: 1;"></path>
     <g font-family="Arial" font-size="28" space="preserve" fill="black" text-anchor="end">
      <text dy=".4em" transform="translate(-4,575)">
       2
      </text>
      <text dy=".4em" transform="translate(-4,484)">
       2.5
      </text>
      <text dy=".4em" transform="translate(-4,393)">
       3
      </text>
      <text dy=".4em" transform="translate(-4,302)">
       3.5
      </text>
      <text dy=".4em" transform="translate(-4,211)">
       4
      </text>
      <text dy=".4em" transform="translate(-4,120)">
       4.5
      </text>
      <text dy=".4em" transform="translate(-4,29)">
       5
      </text>
     </g>
    </g>
   </g>
  </g>
 </g>
</svg>

<svg xmlns="http://www.w3.org/2000/svg" viewBox="0 0 1200 800" preserveAspectRatio="none" width="1200" height="800">
 <path d="M0,0H1200V800H0Z" style="fill: white;"></path>
 <g>
  <g transform="translate(120,80)">
   <path d="M0,0H960V640H0Z" style="fill: white; stroke: black; stroke-width: 1;"></path>
   <svg x="0" y="0" overflow="hidden" width="960" height="640" viewBox="0 0 960 640">
    <g>
     <g transform="translate(71,556)">
      <path style="stroke: black; stroke-width: 1; fill: none;" d="M0,0H-27m0,3v-6M0,0H27m0,3v-6M0,0V55m3,0h-6M0,0V-55m3,0h-6"></path>
     </g>
     <g transform="translate(616,211)">
      <path style="stroke: black; stroke-width: 1; fill: none;" d="M0,0H-27m0,3v-6M0,0H27m0,3v-6M0,0V36m3,0h-6M0,0V-36m3,0h-6"></path>
     </g>
     <path d="M67,552v8h8v-8zM612,207v8h8v-8z" style="stroke: red; fill: red;"></path>
    </g>
    <g>
     <g transform="translate(344,356)">
      <path style="stroke: black; stroke-width: 1; fill: none;" d="M0,0H-27m0,3v-6M0,0H27m0,3v-6M0,0V55m3,0h-6M0,0V-55m3,0h-6"></path>
     </g>
     <g transform="translate(889,65)">
      <path style="stroke: black; stroke-width: 1; fill: none;" d="M0,0H-27m0,3v-6M0,0H27m0,3v-6M0,0V36m3,0h-6M0,0V-36m3,0h-6"></path>
     </g>
     <path d="M344,352l-4,8h8zM889,61l-4,8h8z" style="stroke: green; fill: green;"></path>
    </g>
    <g>
     <path d="M0,579.44C1.19,578.74,7.22,575.2,9.6,573.81S16.82,569.57,19.2,568.17S26.42,563.93,28.8,562.53S36.02,558.3,38.4,556.9S45.62,552.66,48,551.26S55.22,547.02,57.6,545.63S64.82,541.39,67.2,539.99S74.42,535.75,76.8,534.35S84.02,530.11,86.4,528.72S93.62,524.48,96,523.08S103.22,518.84,105.6,517.44S112.82,513.2,115.2,511.81S122.42,507.57,124.8,506.17S132.02,501.93,134.4,500.53S141.62,496.3,144,494.9S151.22,490.66,153.6,489.26S160.82,485.02,163.2,483.63S170.42,479.39,172.8,477.99S180.02,473.75,182.4,472.35S189.62,468.11,192,466.72S199.22,462.48,201.6,461.08S208.82,456.84,211.2,455.44S218.42,451.21,220.8,449.81S228.02,445.57,230.4,444.17S237.62,439.93,240,438.54S247.22,434.3,249.6,432.9S256.82,428.66,259.2,427.26S266.42,423.02,268.8,421.63S276.02,417.39,278.4,415.99S285.62,411.75,288,410.35S295.22,406.11,297.6,404.72S304.82,400.48,307.2,399.08S314.42,394.84,316.8,393.44S324.02,389.21,326.4,387.81S333.62,383.57,336,382.17S343.22,377.93,345.6,376.54S352.82,372.3,355.2,370.9S362.42,366.66,364.8,365.26S372.02,361.02,374.4,359.63S381.62,355.39,384,353.99S391.22,349.75,393.6,348.35S400.82,344.11,403.2,342.72S410.42,338.48,412.8,337.08S420.02,332.84,422.4,331.44S429.62,327.21,432,325.81S439.22,321.57,441.6,320.17S448.82,315.93,451.2,314.54S458.42,310.3,460.8,308.9S468.02,304.66,470.4,303.26S477.62,299.02,480,297.63S487.22,293.39,489.6,291.99S496.82,287.75,499.2,286.35S506.42,282.12,508.8,280.72S516.02,276.48,518.4,275.08S525.62,270.84,528,269.45S535.22,265.21,537.6,263.81S544.82,259.57,547.2,258.17S554.42,253.93,556.8,252.54S564.02,248.3,566.4,246.9S573.62,242.66,576,241.26S583.22,237.02,585.6,235.63S592.82,231.39,595.2,229.99S602.42,225.75,604.8,224.35S612.02,220.12,614.4,218.72S621.62,214.48,624,213.08S631.22,208.84,633.6,207.45S640.82,203.21,643.2,201.81S650.42,197.57,652.8,196.17S660.02,191.93,662.4,190.54S669.62,186.3,672,184.9S679.22,180.66,681.6,179.26S688.82,175.02,691.2,173.63S698.42,169.39,700.8,167.99S708.02,163.75,710.4,162.36S717.62,158.12,720,156.72S727.22,152.48,729.6,151.08S736.82,146.84,739.2,145.45S746.42,141.21,748.8,139.81S756.02,135.57,758.4,134.17S765.62,129.93,768,128.54S775.22,124.3,777.6,122.9S784.82,118.66,787.2,117.26S794.42,113.03,796.8,111.63S804.02,107.39,806.4,105.99S813.62,101.75,816,100.36S823.22,96.12,825.6,94.72S832.82,90.48,835.2,89.08S842.42,84.84,844.8,83.45S852.02,79.21,854.4,77.81S861.62,73.57,864,72.17S871.22,67.93,873.6,66.54S880.82,62.3,883.2,60.9S890.42,56.66,892.8,55.26S900.02,51.03,902.4,49.63S909.62,45.39,912,43.99S919.22,39.75,921.6,38.36S928.82,34.12,931.2,32.72S938.42,28.48,940.8,27.08S948.02,22.84,950.4,21.45S958.81,16.51,960,15.81" style="fill: none; stroke: red; stroke-width: 2;"></path>
    </g>
   </svg>
   <g>
    <g transform="translate(0,640)">
     <path d="M0,0h960M16,-12V0M44,-12V0M71,-24V0M98,-12V0M125,-12V0M153,-12V0M180,-12V0M207,-24V0M235,-12V0M262,-12V0M289,-12V0M316,-12V0M344,-24V0M371,-12V0M398,-12V0M425,-12V0M453,-12V0M480,-24V0M507,-12V0M535,-12V0M562,-12V0M589,-12V0M616,-24V0M644,-12V0M671,-12V0M698,-12V0M725,-12V0M753,-24V0M780,-12V0M807,-12V0M835,-12V0M862,-12V0M889,-24V0M916,-12V0M944,-12V0" style="stroke: black; stroke-width: 1;"></path>
     <g font-family="Arial" font-size="28" space="preserve" fill="black" text-anchor="middle">
      <text dy=".8em" transform="translate(71,6)">
       2
      </text>
      <text dy=".8em" transform="translate(207,6)">
       2.5
      </text>
      <text dy=".8em" transform="translate(344,6)">
       3
      </text>
      <text dy=".8em" transform="translate(480,6)">
       3.5
      </text>
      <text dy=".8em" transform="translate(616,6)">
       4
      </text>
      <text dy=".8em" transform="translate(753,6)">
       4.5
      </text>
      <text dy=".8em" transform="translate(889,6)">
       5
      </text>
     </g>
    </g>
    <g>
     <path d="M0,0v640M18,629H0M18,611H0M18,593H0M36,575H0M18,556H0M18,538H0M18,520H0M18,502H0M36,484H0M18,465H0M18,447H0M18,429H0M18,411H0M36,393H0M18,375H0M18,356H0M18,338H0M18,320H0M36,302H0M18,284H0M18,265H0M18,247H0M18,229H0M36,211H0M18,193H0M18,175H0M18,156H0M18,138H0M36,120H0M18,102H0M18,84H0M18,65H0M18,47H0M36,29H0M18,11H0" style="stroke: black; stroke-width: 1;"></path>
     <g font-family="Arial" font-size="28" space="preserve" fill="black" text-anchor="end">
      <text dy=".4em" transform="translate(-4,575)">
       2
      </text>
      <text dy=".4em" transform="translate(-4,484)">
       2.5
      </text>
      <text dy=".4em" transform="translate(-4,393)">
       3
      </text>
      <text dy=".4em" transform="translate(-4,302)">
       3.5
      </text>
      <text dy=".4em" transform="translate(-4,211)">
       4
      </text>
      <text dy=".4em" transform="translate(-4,120)">
       4.5
      </text>
      <text dy=".4em" transform="translate(-4,29)">
       5
      </text>
     </g>
    </g>
   </g>
  </g>
 </g>
</svg>
